X: 16
T:Riding on a Load of Hay
M:2/4
L:1/8
R:Polka
K:EDor
E>F GA|Be ef/2e/2|dB AG|F/2G/2F/2E/2 DF|!
E>F GA|Be e>f|ge B^d|1e2 e2:|2e2 e>f|]!
ge fd|ed B>c|dB AG|F/2G/2F/2E/2 Df|!
ge fd|ed B>c|dB AF|E2 E>f||!
ge fd|ed B>c|dB AG|F/2G/2F/2E/2 DF|!
EG FA|GB e>f|ge B^d|e2 e2|]!
